hero/outline/bookmark-square.svg

<svg width="24" height="24" viewBox="0 0 24 24" fill="none" xmlns="http://www.w3.org/2000/svg">
<path d="M16.5 3.75V16.5L12 14.25L7.5 16.5V3.75M16.5 3.75H18C19.2426 3.75 20.25 4.75736 20.25 6V18C20.25 19.2426 19.2426 20.25 18 20.25H6C4.75736 20.25 3.75 19.2426 3.75 18V6C3.75 4.75736 4.75736 3.75 6 3.75H7.5M16.5 3.75H7.5" stroke="#0F172A" stroke-width="1.5" stroke-linecap="round" stroke-linejoin="round"/>
</svg>

<svg viewBox="0 0 24 24" xmlns="http://www.w3.org/2000/svg"><path fill="none" stroke="#000" stroke-linecap="round" stroke-linejoin="round" stroke-width="1.5" d="M16.5 3.75V16.5L12 14.25 7.5 16.5V3.75m9 0H18v0c1.24 0 2.25 1 2.25 2.25v12 0c0 1.24-1.01 2.25-2.25 2.25H6v0c-1.25 0-2.25-1.01-2.25-2.25V6v0c0-1.25 1-2.25 2.25-2.25h1.5m9 0h-9"/></svg>
